X:1
T:Vid Lajksjön
O:Viksjö, Ångermanland
Q:1/4=155
M:3/4
L:1/8
K:D
z2 z (F FG)|:A2 A3 d|F3 F FF|G2 G3 B|E6|E2 E3 D|c2 c3 E|A2 A3 D|F3 F FG|A2 A3 D|F3 F FF|G2 G3 B|E4 E2|A2 (3GAG F2|(3BcB A2 G2|1 F6-|F2 z F FG:|2 F6-|F4 z2|:d2 c2 B2|c2 d3 B|c2 B3 A| G2 ed cB|A2 A3 E|A2 c3 A|G2 A3 B| A2 AG FE|D2 F2 A2|A2 d3 A|B2 B3 G|E2 DE FG|A2 (3GAG F2|B2 (3ABA G2|F6-|F4 z2:|

